icons/op-reported-by-me-24.svg

<svg width="24" height="24" viewBox="0 0 24 24" fill="none" xmlns="http://www.w3.org/2000/svg">
<path d="M18.8294 17.5938C18.5221 17.1562 17.5694 16.8438 16.6167 16.4375C15.6947 16.0312 15.4489 15.9062 15.4489 15.9062V14.9375C15.4489 14.9375 15.8177 14.6562 15.9099 13.7812C16.125 13.8438 16.3708 13.4375 16.3708 13.2188C16.4016 13 16.3401 12.4375 16.0943 12.5C16.125 12.0625 16.1865 11.6562 16.1557 11.4688C16.0943 10.6875 15.3567 9.90625 14.2503 9.90625C13.144 9.90625 12.4371 10.6875 12.3757 11.4688C12.345 11.6562 12.3757 12.0625 12.4371 12.5C12.1606 12.4375 12.1298 13 12.1298 13.2188C12.1606 13.4375 12.3757 13.8438 12.6215 13.7812C12.7137 14.6562 13.0825 14.9375 13.0825 14.9375L13.0518 15.9062C13.0518 15.9062 12.8367 16.0312 11.884 16.4375C10.962 16.8438 9.97859 17.1562 9.702 17.5938C9.45614 18.0312 9.51761 20 9.51761 20H18.9831C18.9831 20 19.0753 18.0312 18.8294 17.5938ZM9.82493 14.6875C9.85566 14.5938 9.88639 14.4688 9.88639 14.3438C9.88639 14.2188 9.85566 14.0938 9.82493 14C9.76346 13.875 9.702 13.7812 9.64053 13.6875C9.54834 13.625 9.45614 13.5625 9.33321 13.5C9.24102 13.4688 9.11809 13.4375 8.99516 13.4375C8.90297 13.4375 8.81077 13.4688 8.71857 13.5C8.62638 13.5625 8.53418 13.625 8.47272 13.6875C8.41125 13.7812 8.34979 13.875 8.31906 14C8.28833 14.0938 8.25759 14.2188 8.25759 14.3438C8.25759 14.4688 8.28833 14.5938 8.31906 14.6875C8.34979 14.8125 8.41125 14.9062 8.47272 14.9688C8.53418 15.0625 8.62638 15.125 8.71857 15.1562C8.81077 15.2188 8.90297 15.25 8.99516 15.25C9.11809 15.25 9.24102 15.2188 9.33321 15.1562C9.45614 15.125 9.54834 15.0625 9.64053 14.9688C9.702 14.9062 9.76346 14.8125 9.82493 14.6875ZM8.38052 10.9688C8.41125 11.3438 8.44199 11.7188 8.50345 12.0938H9.51761C9.57907 11.6875 9.6098 11.3438 9.67127 10.9688C9.702 10.625 9.702 10.2812 9.702 9.90625V6.46875H8.31906V9.90625C8.31906 10.2812 8.31906 10.625 8.38052 10.9688ZM6.41367 5.4375H12.8674L16.0943 8.71875L17.1084 7.71875L13.4513 4H5V20H7.45856V18.5625H6.41367V5.4375Z" fill="black"/>
</svg>

<svg xmlns="http://www.w3.org/2000/svg" width="24" height="24" viewBox="0 0 24 24"><path d="M18.829 17.594c-.307-.438-1.26-.75-2.212-1.156a30.433 30.433 0 0 1-1.168-.532v-.968s.369-.282.461-1.157c.215.063.461-.343.461-.562.031-.219-.031-.781-.277-.719.031-.438.092-.844.062-1.031-.062-.781-.799-1.563-1.906-1.563-1.106 0-1.813.782-1.874 1.563-.031.187 0 .593.061 1.031-.276-.062-.307.5-.307.719.031.219.246.625.491.562.093.875.461 1.157.461 1.157l-.03.968s-.215.125-1.168.532c-.922.406-1.905.718-2.182 1.156-.246.437-.184 2.406-.184 2.406h9.465s.092-1.969-.154-2.406Zm-9.004-2.906c.031-.094.061-.219.061-.344 0-.125-.03-.25-.061-.344a2.834 2.834 0 0 0-.184-.312c-.093-.063-.185-.126-.308-.188a1.094 1.094 0 0 0-.338-.062.887.887 0 0 0-.276.062 1.578 1.578 0 0 0-.246.188.969.969 0 0 0-.154.312 1.136 1.136 0 0 0-.061.344c0 .125.03.25.061.344a.612.612 0 0 0 .154.281.476.476 0 0 0 .246.187.485.485 0 0 0 .276.094.607.607 0 0 0 .338-.094.644.644 0 0 0 .308-.187c.061-.063.122-.157.184-.281Zm-1.444-3.719c.03.375.061.75.122 1.125h1.015c.061-.406.092-.75.153-1.125.031-.344.031-.688.031-1.063V6.469H8.319v3.437c0 .375 0 .719.062 1.063ZM6.414 5.438h6.453l3.227 3.281 1.014-1L13.451 4H5v16h2.459v-1.438H6.414V5.438Z"/></svg>
